!!!COM:	de Orto, Marbrianus
!!!CDT:	~1460///-1529//
!!!OTL:	Fors seulement
!!!AGN:	Song; Chanson
!!!SCT:	Ort3004
!!!SCA:	Ort3004
!!!voices:	4
**kern	**kern	**kern	**kern
*staff4	*staff3	*staff2	*staff1
*Ivox	*Ivox	*Ivox	*Ivox
*I"Bassus	*I"Tenor	*I"Altus	*I"Superius
*I'B	*I'T	*I'A	*I'S
*clefF4	*clefGv2	*clefGv2	*clefG2
*k[b-]	*k[b-]	*k[b-]	*k[b-]
*M2/1	*M2/1	*M2/1	*M2/1
*met(C|)	*met(C|)	*met(C|)	*met(C|)
=1-	=1-	=1-	=1-
!LO:TX:X=-40:Z=8:t=Bassus = Ockeghem's tenor, down a twelfth	!	!	!
0r	0r	0r	0dd
=2	=2	=2	=2
0r	0r	1g	1dd
.	.	2g\	1dd
.	.	2g\	.
=3	=3	=3	=3
0r	0r	2g\	1.dd
.	.	4f\	.
.	.	4e\	.
.	.	1d	.
.	.	.	4cc\
.	.	.	4b-\
=4	=4	=4	=4
0r	0r	1d	1a
.	.	[1f	1a
=5	=5	=5	=5
0r	0r	2f\]	1cc
.	.	4e-i\	.
.	.	4d\	.
.	.	1e-	1cc
=6	=6	=6	=6
0r	0r	2.e-i\	1.b-
.	.	4d\	.
.	.	1e-i	.
.	.	.	4a/
.	.	.	4g/
=7	=7	=7	=7
0r	0r	0d	1b-
.	.	.	[1a
=8	=8	=8	=8
0r	0r	1c	2a/]
.	.	.	2g/
.	.	1B-	[1g
=9	=9	=9	=9
0D	0r	0A	2g/]
.	.	.	4f#i/
.	.	.	4e/
.	.	.	1f#
=10	=10	=10	=10
1D	0A	0r	0r
1D	.	.	.
=11	=11	=11	=11
1.D	1A	1.F	0r
.	1A	.	.
4C/	.	2G/	.
4BB-/	.	.	.
=12	=12	=12	=12
1AA	1.c	0A	[0e
1AA	.	.	.
.	2B-\	.	.
=13	=13	=13	=13
1C	2A/	1r	1e]
.	2G/	.	.
1D	1F	2.d\	1a
.	.	4c\	.
=14	=14	=14	=14
1E	2r	2B-\	1g
.	1c	2G/	.
1F	.	1A	1cc
.	2A/	.	.
=15	=15	=15	=15
1.G	1d	2G/	1.b-
.	.	2.d\	.
.	2B-\	.	.
.	.	4e\	.
2F\	[2c\	2f\	2a/
=16	=16	=16	=16
2E\	2c\]	1g	1g
2D\	2B-\	.	.
1C	2A/	1e	2.cc\
.	2G/	.	.
.	.	.	4b-\
=17	=17	=17	=17
1r	1c	1e	2a/
.	.	.	2g/
1D	1A	2.d\	1f#
.	.	4e\	.
=18	=18	=18	=18
1BB-	2r	4f\	0r
.	.	4e\	.
.	1B-	4d\	.
.	.	4c\	.
1GG	.	1B-	.
.	4A/	.	.
.	4G/	.	.
=19	=19	=19	=19
0AA	2F/	0c	0r
.	1G	.	.
.	2F#i/	.	.
=20	=20	=20	=20
1GG	2G/	1B-	2.d/
.	2.D/	.	.
.	.	.	4e/
1D	.	1A	4f/
.	4E/	.	4g/
.	2F/	.	2a/
=21	=21	=21	=21
1E	1C	2r	2g/
.	.	2G/	2.cc\
1F	1r	2A/	.
.	.	.	4b-\
.	.	[2c\	[2a/
=22	=22	=22	=22
1G	0r	4c\]	2a/]
.	.	4B-\	.
.	.	1d	1g
1A	.	.	.
.	.	2c\	2f#i/
=23	=23	=23	=23
[0B-	0G	1d	1g
.	.	1r	[1d
=24	=24	=24	=24
1B-]	0D	2.f\	2d/]
.	.	.	2e/
.	.	4e\	.
1A	.	2.d\	1f
.	.	4c\	.
=25	=25	=25	=25
1.G	0E-	1B-	2g/
.	.	.	1b-
.	.	4G/	.
.	.	4A/	.
4F#i\	.	4B-\	4a/
4E\	.	4c\	4g/
=26	=26	=26	=26
[0F#	[0D	1d	1a
.	.	2r	1a
.	.	[2d\	.
=27	=27	=27	=27
0F#]	0D]	2d\]	0r
.	.	4c\	.
.	.	4B-\	.
.	.	1A	.
=28	=28	=28	=28
0r	[0G	4G/	1.dd
.	.	4A/	.
.	.	4B-\	.
.	.	4c\	.
.	.	2d\	.
.	.	[2e-i\	2cc\
=29	=29	=29	=29
1r	1G]	2e-\]	2b-\
.	.	1d	2g/
1F	1D	.	1a
.	.	2d\	.
=30	=30	=30	=30
1G	2E-i/	2B-\	2g/
.	2C/	2e-\	2.cc\
1A	1F	2.c\	.
.	.	.	4b-\
.	.	.	2a/
.	.	4d\	.
=31	=31	=31	=31
1.B-	1E-i	2.e-i\	1g
.	.	4d\	.
.	1E-i	2.B-\	1g
4A\	.	.	.
4G\	.	4c\	.
=32	=32	=32	=32
0F	1D	1d	[0a
.	2r	1D	.
.	2d\	.	.
=33	=33	=33	=33
1F	4c\	0r	1a]
.	4B-\	.	.
.	4A/	.	.
.	4G/	.	.
1F	1A	.	1cc
=34	=34	=34	=34
0G	1G	1r	1.b-
.	1E-i	2.B-\	.
.	.	.	4a/
.	.	4c\	4g/
=35	=35	=35	=35
0A	0D	0d	2f/
.	.	.	1g
.	.	.	2f#i/
=36	=36	=36	=36
1G	1B-	1r	1g
1F	[1A	1f	[1d
=37	=37	=37	=37
0E	2A/]	1g	2d/]
.	4G/	.	4c#i/
.	4F/	.	4Bni/
.	1G	1g	1c#i
=38	=38	=38	=38
0D	0A	1f	0d
.	.	1d	.
=39	=39	=39	=39
0r	0c	1e-	1g
.	.	1e-i	1g
=40	=40	=40	=40
0r	1d	1d	1.f
.	1d	1B-	.
.	.	.	2d/
=41	=41	=41	=41
0r	1c	2.A/	1e
.	.	4G/	.
.	1A	1F	1cc
=42	=42	=42	=42
0r	0B-	2r	1dd
.	.	4G/	.
.	.	4A/	.
.	.	4B-\	1dd
.	.	4c\	.
.	.	4d\	.
.	.	4e\	.
=43	=43	=43	=43
0r	2r	2f\	1cc
.	2e-\	1g	.
.	2c\	.	1a
.	2d\	2f#i\	.
=44	=44	=44	=44
0r	0G	0g	1b-
.	.	.	1b-
=45	=45	=45	=45
0F	1D	0r	0a
.	[1d	.	.
=46	=46	=46	=46
1G	2d\]	0r	0g
.	2c\	.	.
1G	1B-	.	.
=47	=47	=47	=47
1F	1.A	0r	0r
1D	.	.	.
.	[2B-\	.	.
=48	=48	=48	=48
1E-i	2B-\]	0r	0r
.	2.c\	.	.
1E-i	.	.	.
.	4B-\	.	.
.	4A/	.	.
.	4G/	.	.
=49	=49	=49	=49
1D	1F	1r	0r
1BB-	[1B-	1d	.
=50	=50	=50	=50
0C	2B-\]	1e-	0r
.	4A/	.	.
.	4G/	.	.
.	1A	1e-i	.
=51	=51	=51	=51
1.BB-	1B-	1d	1.dd
.	1r	1B-	.
4AA/	.	.	4cc\
4GG/	.	.	4b-\
=52	=52	=52	=52
1FF	0r	1c	2a/
.	.	.	1b-
1r	.	1c	.
.	.	.	2a/
=53	=53	=53	=53
0F	0r	2.A/	2.cc\
.	.	4B-\	4b-\
.	.	2c\	2.a/
.	.	[2d\	.
.	.	.	4g/
=54	=54	=54	=54
0D	0r	2d\]	0f
.	.	4c\	.
.	.	4B-\	.
.	.	2A/	.
.	.	[2B-\	.
=55	=55	=55	=55
0BB-	1r	4B-\]	0r
.	.	4A/	.
.	.	4G/	.
.	.	4F/	.
.	1D	1G	.
=56	=56	=56	=56
1.AA	1E	1.A	0r
.	2.F/	.	.
2BB-/	.	4G/	.
.	4G/	4F/	.
=57	=57	=57	=57
2C/	4A/	1E	0r
.	4B-\	.	.
2C/	2c\	.	.
1D	2B-\	1D	.
.	[2A/	.	.
=58	=58	=58	=58
2C/	2A/]	2r	0r
2BB-/	2.G/	2.d\	.
1AA	.	.	.
.	4F#i/	4c\	.
.	2F#i/	2c\	.
=59	=59	=59	=59
1r	0G	1B-	1d
[1GG	.	1G	2e/
.	.	.	2d/
=60	=60	=60	=60
1GG]	0D	4G/	1g
.	.	4A/	.
.	.	4B-\	.
.	.	4c\	.
[1BB-	.	2.d\	2f/
.	.	.	[2b-\
.	.	4e\	.
=61	=61	=61	=61
2BB-/]	1r	1f	2b-\]
2C/	.	.	4a/
.	.	.	4g/
1D	1A	2r	1f
.	.	2d\	.
=62	=62	=62	=62
1E	1G	1g	1r
[1F	1c	2r	1a
.	.	2f\	.
=63	=63	=63	=63
2F\]	2.c\	2.a\	1.cc
4E\	.	.	.
4D\	4d\	4f\	.
[1C	[1e-	1g	.
.	.	.	4b-\
.	.	.	4a/
=64	=64	=64	=64
2C/]	2e-\]	0r	1.g
2D\	2d\	.	.
2E\	2.c\	.	.
2F\	.	.	2a/
.	4A/	.	.
=65	=65	=65	=65
1.G	2.d\	2r	2.b-\
.	.	2.g\	.
.	4c\	.	4cc\
.	4B-\	.	2.dd\
.	4A/	4f\	.
4F\	2G/	[2d\	.
4E\	.	.	4cc\
=66	=66	=66	=66
2D\	1r	2d\]	2b-\
2C/	.	2e\	2cc\
1F	2r	2.c\	1a
.	2A/	.	.
.	.	4d\	.
=67	=67	=67	=67
2E\	2G/	2c\	1r
1D	2A/	1d	.
.	2F/	.	2a/
2C/	[2G/	2e\	2cc\
=68	=68	=68	=68
[0D	2G/]	2d\	2b-\
.	1F	2.f\	2.a/
.	.	4e\	4g/
.	2BB-/	[2d\	2b-\
=69	=69	=69	=69
0D]	2F/	4d\]	2a/
.	.	4c\	.
.	2G/	2B-\	1g
.	1A	2A/	.
.	.	[2d\	2f#i/
=70	=70	=70	=70
[0GGl	[0Gl	2d\]	[0gl
.	.	2e-i\	.
.	.	1d	.
=71	=71	=71	=71
0GG]	0G]	0dl	0g]
==	==	==	==
*-	*-	*-	*-
!!!RDF**kern: l=long note in original notation
!!!RDF**kern: i=editorial accidental
!!!ENC:	Jesse Rodin 8/6/2013
!!!END:	2013/08/06/
!!!EED:	Jesse Rodin
!!!EEV:	2013/08/06/
!!!ONB:	Translated from MusicXML and edited on 2013/08/06/ by Craig Sapp
!!muse2ps: C^@{COM}^i2I150v85,85,85,150Q16
